packages/kaspersky-hexa-ui-icons/src/iconsSVGs/24/Relation.svg

<svg width="24" height="24" viewBox="0 0 24 24" fill="none" xmlns="http://www.w3.org/2000/svg">
<path fill-rule="evenodd" clip-rule="evenodd" d="M24 12.5C24 10.0147 21.9853 8 19.5 8C17.5407 8 15.8738 9.25221 15.2561 11H8.74394C8.12619 9.25221 6.45933 8 4.5 8C2.01472 8 0 10.0147 0 12.5C0 14.9853 2.01472 17 4.5 17C6.81628 17 8.72381 15.25 8.97254 13H15.0275C15.2762 15.25 17.1837 17 19.5 17C21.9853 17 24 14.9853 24 12.5ZM19.5 10C20.8807 10 22 11.1193 22 12.5C22 13.8807 20.8807 15 19.5 15C18.1193 15 17 13.8807 17 12.5C17 11.1193 18.1193 10 19.5 10ZM4.5 10C5.88071 10 7 11.1193 7 12.5C7 13.8807 5.88071 15 4.5 15C3.11929 15 2 13.8807 2 12.5C2 11.1193 3.11929 10 4.5 10Z" fill="black"/>
</svg>

<svg xmlns="http://www.w3.org/2000/svg" width="24" height="24" fill="none" viewBox="0 0 24 24"><path d="M24 0H0v24h24z"/><path fill="#000" fill-rule="evenodd" d="M24 12.5c0-2.4853-2.0147-4.5-4.5-4.5-1.9593 0-3.6262 1.2522-4.2439 3H8.7439C8.1262 9.2522 6.4593 8 4.5 8 2.0147 8 0 10.0147 0 12.5S2.0147 17 4.5 17c2.3163 0 4.2238-1.75 4.4725-4h6.055c.2487 2.25 2.1562 4 4.4725 4 2.4853 0 4.5-2.0147 4.5-4.5M19.5 10c1.3807 0 2.5 1.1193 2.5 2.5S20.8807 15 19.5 15 17 13.8807 17 12.5s1.1193-2.5 2.5-2.5m-15 0C5.8807 10 7 11.1193 7 12.5S5.8807 15 4.5 15 2 13.8807 2 12.5 3.1193 10 4.5 10"/></svg>
